!! 00000] TT[00
!! NN
!!!OTL: Song qing lang
!!!ARE: Asia, China, Shanxi, Hequ
!! Ethnic Group: Han
!! I, 333
!!!SCT: C0098
!!!YEM: Copyright 1995, estate of Helmut Schaffrath.
**kern
*ICvox
*Ivox
*M4/4
*k[b-e-]
*B-:
{8.ccc
16bb-
8ccc
8ddd
8bb-
4gg
8cc
=1
8.fff
16ddd
8ccc
16ddd
16ccc
8bb-
4gg
8cc}
=2
{8.ccc
16fff
8ddd
8bb-
4gg
16bb-
16gg
16fff
16ddd
=3
2.ccc}
{8fff
8ddd
=4
4.bb-
8ccc
8.fff
16ggg
8eee-
8ddd
=5
2.ccc}
{8ddd
8aa
=6
4gg
8gg
8bb-
8.ccc
16fff
8ddd
16ccc
16bb-
=7
4gg
8.ccc
16fff
8ccc
8aa
8gg
8ff}
=8
{8.gg
16bb-
8ee-
8cc
8ee-
8cc
16ee-
16cc
16ee-
16ff
=9
4gg
2.r}
=10
{8.fff
16ddd
8ccc
16ddd
16ccc
8ff
8dd
16ff
16dd
16ff
16gg
=11
4.bb-
8ccc}
{8ddd
8aa
8gg
8ff
=12
8dd
16dd
16ff
8gg
8bb-
8gg
8ff
8ee-
8dd
=13
8ff
4cc
8r
2r}
==
!!!AGN: Xiaodiao, Wuge, Errentai. NannÅ liqing
!! Vereinzelt Verzierungen. Zwischenspiel weggelassen.
!!!ONB: ESAC (Essen Associative Code) Database: CHINA
!!!AMT: simple quadruple
!!!AIN: vox
!!!EED: Helmut Schaffrath
!!!EEV: 1.0
*-
